X:1
T: Lord Alexander Russell of Woburn Abbey's Jig
C:William Marshall
R:Jig
Q:180
K:C
M:6/8
L:1/16
G2|E6c4e2|Bcd2B2 c4G2|c2B2A2 G2F2E2|D6D4B2|c6c4e2|d2e2c2 B4G2|c2B2A2 G2E2G2|C6C4G2|
E6c4e2|Bcd2B2 c4G2|c2B2A2 G2F2E2|D6D4B2|c6c4e2|d2e2c2 B4G2|c2B2A2 G2E2G2|C6C6|
efg2c2 g2f2e2|fga2f2 a2g2f2|g2e2c2 c2d2e2|d6d6|efg2c2 g2f2e2|fga2f2 a2g2f2|e2d2c2 G2A2B2|c6c6|
g2e2c2 a2f2d2|g2e2c2 a2f2d2|g2e2c2 c2d2e2|d6d4ef|g2f2e2 f2e2d2|e2d2c2 d2c2B2|c2B2A2 G2E2G2|C6C4||
